COLOR/mimes 16/16/application-x-java.svg

<svg height="16" viewBox="0 0 4.233125 4.233125" width="16" xmlns="http://www.w3.org/2000/svg" xmlns:xlink="http://www.w3.org/1999/xlink"><linearGradient id="a" gradientUnits="userSpaceOnUse" x1="328" x2="328" y1="237" y2="251"><stop offset="0" stop-color="#fff"/><stop offset=".125" stop-color="#fff" stop-opacity=".098039"/><stop offset=".92500001" stop-color="#fff" stop-opacity=".098039"/><stop offset="1" stop-color="#fff" stop-opacity=".498039"/></linearGradient><clipPath id="b"><path d="m325.09646 237c-2.80769 0-3.10979.28839-3.09603 3.10176v3.89824 3.89824c-.0138 2.81337.28834 3.10176 3.09603 3.10176h5.8075c2.8077 0 3.09604-.28835 3.09604-3.10176v-3.89824-3.89824c0-2.8134-.28835-3.10176-3.09604-3.10176z"/></clipPath><linearGradient id="c" gradientTransform="matrix(0 -.00953618 -.00953591 0 5.176271 4.473644)" gradientUnits="userSpaceOnUse" x1="459.03448" x2="35.310345" y1="419.23337" y2="207.36522"><stop offset="0" stop-color="#dd4f37"/><stop offset="1" stop-color="#e57866"/></linearGradient><path d="m2.8849672.13228543c.187972 0 .3369145.004074.463514.0253194.1265996.021245.2372429.0627772.3193443.14468821.082102.0819083.1236232.1921045.1446883.31882839.02106.12672124.024684.27608441.023758.46454837v1.030893 1.0314115c.0007937.188165-.00273.3374488-.023758.4640299-.02106.1267238-.062584.23692-.1446883.3188284-.082104.081911-.1927421.1234352-.3193443.1446882-.1266022.021245-.275542.025319-.463514.025319h-1.5367831c-.1879719 0-.3366287-.00405-.46299804-.025319-.12636672-.0212715-.23701267-.0627376-.31882839-.1446882-.08180779-.0819507-.12294318-.1922924-.14416966-.3188284-.02121854-.1265334-.02531938-.275685-.02531938-.4640299v-1.0314115-1.0314116c0-.18834488.004101-.33749639.0253194-.46402979.0212185-.12653604.0623592-.23687774.14416964-.31882839.0818157-.0819507.19246167-.12342205.31882839-.14468821.12636934-.0212715.27502614-.0253194.46299804-.0253194z" fill="url(#c)"/><path d="m2.1166947.26457058v3.70398442h.7683916c.7428341 0 .8190303-.076236.8190303-.8205807v-1.0314115-1.0314116c0-.74434204-.076199-.82058062-.8190303-.82058062z" fill="#fff" opacity=".08"/><path d="m.52927284 2.1165628v1.0314115c-.003651.7443342.0761989.8205807.81903036.8205807h1.5367831c.7428341 0 .8190303-.076236.8190303-.8205807v-1.0314115z" fill="#fff" opacity=".08"/><path d="m1.3483032.13228543c-.187972 0-.3369145.004074-.463514.0253194-.12659954.021245-.23724284.0627772-.3193443.14468821-.0821015.0819083-.12362312.1921045-.14468821.31882839-.0210598.12672124-.0246844.27608441-.0237584.46454837v1.030893 1.0314115c-.00079371.188165.002725.3374488.0237584.4640299.0210598.1267238.0625841.23692.14468821.3188284.0821041.081911.19274212.1234352.3193443.1446882.1266022.021245.275542.025319.463514.025319h1.5367831c.1879719 0 .3366287-.00405.4629981-.025319.1263667-.021272.2370126-.062738.3188284-.1446882.081808-.081951.1229431-.1922924.1441696-.3188284.021219-.1265334.025319-.275685.025319-.4640299v-1.0314115-1.0314116c0-.18834488-.0041-.33749639-.025319-.46402979-.0212186-.12653604-.0623596-.23687774-.1441696-.31882839-.081816-.0819507-.1924617-.12342205-.3188284-.14468821-.1263694-.0212715-.2750262-.0253194-.4629981-.0253194z" fill="none" opacity=".3" stroke="#000" stroke-width=".26457"/><path clip-path="url(#b)" d="m325.09646 237c-2.80769 0-3.10979.28839-3.09603 3.10176v3.89824 3.89824c-.0138 2.81337.28834 3.10176 3.09603 3.10176h5.8075c2.8077 0 3.09604-.28835 3.09604-3.10176v-3.89824-3.89824c0-2.8134-.28835-3.10176-3.09604-3.10176z" fill="none" opacity=".4" stroke="url(#a)" stroke-width="2" transform="matrix(.26457031 0 0 .26457031 -84.662368 -62.438594)"/><path clip-rule="evenodd" d="m2.4343447.52914218c.1330471.52415082-.4692975.68246172-.6866923 1.00889132-.1480429.2224084.0726669.4614.3735733.732865-.1173396-.2652582-.5152824-.497289.0001164-.9044151.6427551-.50732944.312947-.83734122.312947-.83734122zm.3976571.64849092c.0000079 0-1.0868548.2713751-.5677944.8695077.1532286.1763891-.040196.3349884-.040196.3349884s.3888469-.2006898.2103042-.4521401c-.1668169-.2343828-.2946917-.3508202.3976862-.752356zm.1924749 1.0684064c-.038188.0001138-.078736.00677-.1203345.021377-.033352.011826-.050853.039254-.050853.039254s.021086-.00847.0681-.018308c.19225-.040059.4677127.2573687-.127978.5668287-.00275.00738-.011906.015636-.011906.015636.70843-.1862333.5539315-.6253724.2429715-.624793zm-1.276356.030203c-.046662-.00132-.2483945.00185-.4894524.1185355-.32591096.157586.8060028.2293771 1.3920393.075238.060928-.041577.1450851-.077675.1450851-.077675s-.2396875.042852-.4785178.062896c-.2923184.024526-.6058871.029365-.7632879.00831-.3726711-.049824.2042932-.1868819.2042932-.1868819s-.00349-.0002646-.010159-.0002646zm-.1241813.3605621c-.537615.1784288.2992819.3809256 1.0506589.1611418-.0798314-.0281423-.1305231-.0796436-.1305231-.0796436-.3673718.0707011-.579573.0684443-.8483553.0406962-.2078014-.0214831-.0717805-.1221944-.0717805-.1221944zm.075987.3475527c-.4881585.1363993.2970042.4181402.9185592.1518422-.1017987-.0395638-.1748148-.0852366-.1748148-.0852366-.2771745.0523955-.4057504.0565228-.6573488.0277931-.2076427-.0238113-.0863954-.0943987-.0863956-.0943987zm-.3390546.2304302c-.2192177.00677-.64793536.20387-.2558713.2674965 1.2671807.2053991 2.3098867-.092515 1.9812375-.2408119 0 0 .089774.074019-.098854.1312454-.3586781.1086431-1.4931476.1414101-1.8082482.00434-.1131912-.049303.099166-.1176412.1659861-.1320708.069667-.015081.1094554-.012329.1094554-.012329-.019684-.013863-.05311-.019128-.093705-.017885zm1.9265348.1883794s-.039942.1025553-.4724855.1839266c-.4879735.091869-1.0899688.081157-1.4468768.022224 0 0 .073103.060523.4488144.084705.5716624.036547 1.4497659-.020319 1.4705479-.2908609z" fill="#fff" fill-rule="evenodd" stroke-width="1.014829"/></svg>

<?xml version="1.0" encoding="UTF-8" standalone="no"?>
<svg
   xmlns:dc="http://purl.org/dc/elements/1.1/"
   xmlns:cc="http://creativecommons.org/ns#"
   xmlns:rdf="http://www.w3.org/1999/02/22-rdf-syntax-ns#"
   xmlns:svg="http://www.w3.org/2000/svg"
   xmlns="http://www.w3.org/2000/svg"
   xmlns:xlink="http://www.w3.org/1999/xlink"
   xmlns:sodipodi="http://sodipodi.sourceforge.net/DTD/sodipodi-0.dtd"
   xmlns:inkscape="http://www.inkscape.org/namespaces/inkscape"
   width="16"
   height="16"
   version="1.1"
   viewBox="0 0 4.233125 4.233125"
   id="svg43"
   sodipodi:docname="application-x-java.svg"
   inkscape:version="0.92.4 (5da689c313, 2019-01-14)">
  <metadata
     id="metadata47">
    <rdf:RDF>
      <cc:Work
         rdf:about="">
        <dc:format>image/svg+xml</dc:format>
        <dc:type
           rdf:resource="http://purl.org/dc/dcmitype/StillImage" />
        <dc:title />
      </cc:Work>
    </rdf:RDF>
  </metadata>
  <sodipodi:namedview
     pagecolor="#ffffff"
     bordercolor="#666666"
     borderopacity="1"
     objecttolerance="10"
     gridtolerance="10"
     guidetolerance="10"
     inkscape:pageopacity="0"
     inkscape:pageshadow="2"
     inkscape:window-width="1920"
     inkscape:window-height="1016"
     id="namedview45"
     showgrid="false"
     inkscape:zoom="52.437484"
     inkscape:cx="7.9811815"
     inkscape:cy="8.0000019"
     inkscape:window-x="0"
     inkscape:window-y="27"
     inkscape:window-maximized="1"
     inkscape:current-layer="svg43" />
  <defs
     id="defs17">
    <linearGradient
       id="linearGradient4226"
       x1="529.65503"
       x2="-35.310001"
       y1="401.58401"
       y2="119.093"
       gradientTransform="matrix(0,-0.11988932,-0.11988589,0,67.016455,292.54831)"
       gradientUnits="userSpaceOnUse">
      <stop
         style="stop-color:#4d4d4d"
         offset="0"
         id="stop2" />
      <stop
         style="stop-color:#666666"
         offset="1"
         id="stop4" />
    </linearGradient>
    <linearGradient
       id="linearGradient4358"
       x1="88"
       x2="488"
       y1="88"
       y2="488"
       gradientUnits="userSpaceOnUse">
      <stop
         style="stop-color:#000000;stop-opacity:.58823532"
         offset="0"
         id="stop7" />
      <stop
         style="stop-color:#000000;stop-opacity:0"
         offset=".88"
         id="stop9" />
      <stop
         style="stop-color:#000000"
         offset="1"
         id="stop11" />
    </linearGradient>
    <filter
       id="filter4346"
       width="1.026"
       height="1.022"
       x="-0.0099999998"
       y="-0.0099999998"
       style="color-interpolation-filters:sRGB">
      <feGaussianBlur
         stdDeviation="2.12"
         id="feGaussianBlur14" />
    </filter>
    <clipPath
       clipPathUnits="userSpaceOnUse"
       id="clipPath983">
      <path
         sodipodi:nodetypes="scccssscsss"
         inkscape:connector-curvature="0"
         id="path985"
         d="m 325.09646,237 c -2.80769,0 -3.10979,0.28839 -3.09603,3.10176 V 244 v 3.89824 c -0.0138,2.81337 0.28834,3.10176 3.09603,3.10176 h 5.8075 C 333.71166,251 334,250.71165 334,247.89824 V 244 240.10176 C 334,237.28836 333.71165,237 330.90396,237 Z"
         style="color:#000000;display:inline;overflow:visible;visibility:visible;opacity:1;fill:#46a926;fill-opacity:1;fill-rule:nonzero;stroke:none;stroke-width:2;stroke-miterlimit:4;stroke-dasharray:none;stroke-opacity:1;marker:none;enable-background:accumulate" />
    </clipPath>
    <linearGradient
       gradientUnits="userSpaceOnUse"
       gradientTransform="matrix(0 -.11988932 -.11988589 0 67.016455 292.81288)"
       y2="119.093"
       y1="401.584"
       x2="-35.31"
       x1="529.655"
       id="linearGradient4226-6">
      <stop
         id="stop2-7"
         offset="0"
         style="stop-color:#d24625" />
      <stop
         id="stop4-5"
         offset="1"
         style="stop-color:#ec532f" />
    </linearGradient>
    <filter
       style="color-interpolation-filters:sRGB"
       y="-.01"
       x="-.01"
       height="1.022"
       width="1.026"
       id="filter4346-2">
      <feGaussianBlur
         id="feGaussianBlur14-9"
         stdDeviation="2.12" />
    </filter>
    <filter
       height="1.12"
       width="1.12"
       y="-0.059999999"
       x="-0.059999999"
       id="b"
       style="color-interpolation-filters:sRGB">
      <feGaussianBlur
         id="feGaussianBlur8"
         stdDeviation="0.5" />
    </filter>
    <filter
       height="1.072"
       width="1.072"
       y="-0.035999998"
       x="-0.035999998"
       id="c"
       style="color-interpolation-filters:sRGB">
      <feGaussianBlur
         id="feGaussianBlur5"
         stdDeviation="0.3" />
    </filter>
    <filter
       id="filter4346-1"
       width="1.026"
       height="1.022"
       x="-.01"
       y="-.01"
       style="color-interpolation-filters:sRGB">
      <feGaussianBlur
         stdDeviation="2.12"
         id="feGaussianBlur14-2" />
    </filter>
    <filter
       style="color-interpolation-filters:sRGB"
       id="b-7"
       x="-0.059999999"
       y="-0.059999999"
       width="1.12"
       height="1.12">
      <feGaussianBlur
         stdDeviation="0.5"
         id="feGaussianBlur8-0" />
    </filter>
    <filter
       style="color-interpolation-filters:sRGB"
       id="c-9"
       x="-0.035999998"
       y="-0.035999998"
       width="1.072"
       height="1.072">
      <feGaussianBlur
         stdDeviation="0.3"
         id="feGaussianBlur5-3" />
    </filter>
    <clipPath
       clipPathUnits="userSpaceOnUse"
       id="clipPath983-3">
      <path
         sodipodi:nodetypes="scccssscsss"
         inkscape:connector-curvature="0"
         id="path985-6"
         d="m 325.09646,237 c -2.80769,0 -3.10979,0.28839 -3.09603,3.10176 V 244 v 3.89824 c -0.0138,2.81337 0.28834,3.10176 3.09603,3.10176 h 5.8075 C 333.71166,251 334,250.71165 334,247.89824 V 244 240.10176 C 334,237.28836 333.71165,237 330.90396,237 Z"
         style="color:#000000;display:inline;overflow:visible;visibility:visible;opacity:1;fill:#46a926;fill-opacity:1;fill-rule:nonzero;stroke:none;stroke-width:2;stroke-miterlimit:4;stroke-dasharray:none;stroke-opacity:1;marker:none;enable-background:accumulate" />
    </clipPath>
    <linearGradient
       inkscape:collect="always"
       xlink:href="#linearGradient927"
       id="linearGradient993"
       x1="328"
       y1="237"
       x2="328"
       y2="251"
       gradientUnits="userSpaceOnUse" />
    <linearGradient
       inkscape:collect="always"
       id="linearGradient927">
      <stop
         style="stop-color:#ffffff;stop-opacity:1;"
         offset="0"
         id="stop923" />
      <stop
         id="stop933"
         offset="0.125"
         style="stop-color:#ffffff;stop-opacity:0.09803922" />
      <stop
         id="stop931"
         offset="0.92500001"
         style="stop-color:#ffffff;stop-opacity:0.09803922" />
      <stop
         style="stop-color:#ffffff;stop-opacity:0.49803922"
         offset="1"
         id="stop925" />
    </linearGradient>
    <clipPath
       clipPathUnits="userSpaceOnUse"
       id="clipPath983-7">
      <path
         sodipodi:nodetypes="scccssscsss"
         inkscape:connector-curvature="0"
         id="path985-5"
         d="m 325.09646,237 c -2.80769,0 -3.10979,0.28839 -3.09603,3.10176 V 244 v 3.89824 c -0.0138,2.81337 0.28834,3.10176 3.09603,3.10176 h 5.8075 C 333.71166,251 334,250.71165 334,247.89824 V 244 240.10176 C 334,237.28836 333.71165,237 330.90396,237 Z"
         style="color:#000000;display:inline;overflow:visible;visibility:visible;opacity:1;fill:#46a926;fill-opacity:1;fill-rule:nonzero;stroke:none;stroke-width:2;stroke-miterlimit:4;stroke-dasharray:none;stroke-opacity:1;marker:none;enable-background:accumulate" />
    </clipPath>
    <linearGradient
       inkscape:collect="always"
       xlink:href="#linearGradient4246"
       id="linearGradient920"
       gradientUnits="userSpaceOnUse"
       gradientTransform="matrix(0,-0.00953618,-0.00953591,0,5.1762705,4.4736435)"
       x1="459.03448"
       y1="419.23337"
       x2="35.310345"
       y2="207.36522" />
    <linearGradient
       inkscape:collect="always"
       id="linearGradient4246">
      <stop
         style="stop-color:#dd4f37;stop-opacity:1"
         offset="0"
         id="stop4248" />
      <stop
         style="stop-color:#e57866;stop-opacity:1"
         offset="1"
         id="stop4250" />
    </linearGradient>
  </defs>
  <path
     style="color:#000000;display:inline;overflow:visible;visibility:visible;fill:url(#linearGradient920);fill-opacity:1;fill-rule:nonzero;stroke:none;stroke-width:0.26457033;marker:none;enable-background:accumulate"
     d="m 2.8849672,0.13228543 c 0.187972,0 0.3369145,0.004074 0.463514,0.0253194 0.1265996,0.021245 0.2372429,0.0627772 0.3193443,0.14468821 0.082102,0.0819083 0.1236232,0.1921045 0.1446883,0.31882839 0.02106,0.12672124 0.024684,0.27608441 0.023758,0.46454837 v 1.030893 1.0314115 c 7.937e-4,0.188165 -0.00273,0.3374488 -0.023758,0.4640299 -0.02106,0.1267238 -0.062584,0.23692 -0.1446883,0.3188284 -0.082104,0.081911 -0.1927421,0.1234352 -0.3193443,0.1446882 -0.1266022,0.021245 -0.275542,0.025319 -0.463514,0.025319 H 1.3481841 c -0.1879719,0 -0.3366287,-0.00405 -0.46299804,-0.025319 C 0.75881934,4.0542493 0.64817339,4.0127832 0.56635767,3.9308326 0.48454988,3.8488819 0.44341449,3.7385402 0.42218801,3.6120042 0.40096947,3.4854708 0.39686863,3.3363192 0.39686863,3.1479743 V 2.1165628 1.0851512 c 0,-0.18834488 0.004101,-0.33749639 0.0253194,-0.46402979 C 0.44340653,0.49458537 0.48454723,0.38424367 0.56635767,0.30229302 0.64817337,0.22034232 0.75881934,0.17887097 0.88518606,0.15760481 1.0115554,0.13633331 1.1602122,0.13228541 1.3481841,0.13228541 Z"
     id="path918"
     inkscape:connector-curvature="0" />
  <path
     style="color:#000000;display:inline;overflow:visible;visibility:visible;opacity:0.07999998;fill:#ffffff;fill-opacity:1;fill-rule:nonzero;stroke:none;stroke-width:0.26457033;marker:none;enable-background:accumulate"
     d="M 2.1166947,0.26457058 V 3.968555 h 0.7683916 c 0.7428341,0 0.8190303,-0.076236 0.8190303,-0.8205807 V 2.1165628 1.0851512 c 0,-0.74434204 -0.076199,-0.82058062 -0.8190303,-0.82058062 z"
     id="path1009"
     inkscape:connector-curvature="0" />
  <path
     style="color:#000000;display:inline;overflow:visible;visibility:visible;opacity:0.07999998;fill:#ffffff;fill-opacity:1;fill-rule:nonzero;stroke:none;stroke-width:0.26457033;marker:none;enable-background:accumulate"
     d="M 0.52927284,2.1165628 V 3.1479743 C 0.52562184,3.8923085 0.60547174,3.968555 1.3483032,3.968555 h 1.5367831 c 0.7428341,0 0.8190303,-0.076236 0.8190303,-0.8205807 V 2.1165628 Z"
     id="path1016"
     inkscape:connector-curvature="0" />
  <path
     id="path1087"
     d="m 1.3483032,0.13228543 c -0.187972,0 -0.3369145,0.004074 -0.463514,0.0253194 -0.12659954,0.021245 -0.23724284,0.0627772 -0.3193443,0.14468821 -0.0821015,0.0819083 -0.12362312,0.1921045 -0.14468821,0.31882839 -0.0210598,0.12672124 -0.0246844,0.27608441 -0.0237584,0.46454837 v 1.030893 1.0314115 c -7.9371e-4,0.188165 0.002725,0.3374488 0.0237584,0.4640299 0.0210598,0.1267238 0.0625841,0.23692 0.14468821,0.3188284 0.0821041,0.081911 0.19274212,0.1234352 0.3193443,0.1446882 0.1266022,0.021245 0.275542,0.025319 0.463514,0.025319 h 1.5367831 c 0.1879719,0 0.3366287,-0.00405 0.4629981,-0.025319 C 3.4744511,4.0542488 3.585097,4.0127828 3.6669128,3.9308326 3.7487208,3.8488816 3.7898559,3.7385402 3.8110824,3.6120042 3.8323014,3.4854708 3.8364014,3.3363192 3.8364014,3.1479743 V 2.1165628 1.0851512 c 0,-0.18834488 -0.0041,-0.33749639 -0.025319,-0.46402979 C 3.7898638,0.49458537 3.7487228,0.38424367 3.6669128,0.30229302 3.5850968,0.22034232 3.4744511,0.17887097 3.3480844,0.15760481 3.221715,0.13633331 3.0730582,0.13228541 2.8850863,0.13228541 Z"
     style="color:#000000;display:inline;overflow:visible;visibility:visible;opacity:0.3;fill:none;fill-opacity:1;fill-rule:nonzero;stroke:#000000;stroke-width:0.26457033;stroke-opacity:1;marker:none;enable-background:accumulate"
     inkscape:connector-curvature="0" />
  <path
     transform="matrix(0.26457031,0,0,0.26457031,-84.662368,-62.438594)"
     style="color:#000000;display:inline;overflow:visible;visibility:visible;opacity:0.4;fill:none;fill-opacity:1;fill-rule:nonzero;stroke:url(#linearGradient993);stroke-width:2;stroke-miterlimit:4;stroke-dasharray:none;stroke-opacity:1;marker:none;enable-background:accumulate"
     d="m 325.09646,237 c -2.80769,0 -3.10979,0.28839 -3.09603,3.10176 V 244 v 3.89824 c -0.0138,2.81337 0.28834,3.10176 3.09603,3.10176 h 5.8075 C 333.71166,251 334,250.71165 334,247.89824 V 244 240.10176 C 334,237.28836 333.71165,237 330.90396,237 Z"
     id="path937"
     inkscape:connector-curvature="0"
     sodipodi:nodetypes="scccssscsss"
     clip-path="url(#clipPath983-7)" />
  <path
     id="path1127"
     d="M 2.4343447,0.52914218 C 2.5673918,1.053293 1.9650472,1.2116039 1.7476524,1.5380335 1.5996095,1.7604419 1.8203193,1.9994335 2.1212257,2.2708985 2.0038861,2.0056403 1.6059433,1.7736095 2.1213421,1.3664834 2.7640972,0.85915396 2.4342891,0.52914218 2.4342891,0.52914218 Z M 2.8320018,1.1776331 c 7.9e-6,0 -1.0868548,0.2713751 -0.5677944,0.8695077 0.1532286,0.1763891 -0.040196,0.3349884 -0.040196,0.3349884 0,0 0.3888469,-0.2006898 0.2103042,-0.4521401 C 2.2674987,1.6956063 2.1396239,1.5791689 2.8320018,1.1776331 Z m 0.1924749,1.0684064 c -0.038188,1.138e-4 -0.078736,0.00677 -0.1203345,0.021377 -0.033352,0.011826 -0.050853,0.039254 -0.050853,0.039254 0,0 0.021086,-0.00847 0.0681,-0.018308 0.19225,-0.040059 0.4677127,0.2573687 -0.127978,0.5668287 -0.00275,0.00738 -0.011906,0.015636 -0.011906,0.015636 0.70843,-0.1862333 0.5539315,-0.6253724 0.2429715,-0.624793 z m -1.276356,0.030203 C 1.7014587,2.2749225 1.4997262,2.2780925 1.2586683,2.394778 0.93275734,2.552364 2.0646711,2.6241551 2.6507076,2.470016 2.7116356,2.428439 2.7957927,2.392341 2.7957927,2.392341 c 0,0 -0.2396875,0.042852 -0.4785178,0.062896 C 2.0249565,2.479763 1.7113878,2.484602 1.553987,2.463547 1.1813159,2.413723 1.7582802,2.2766651 1.7582802,2.2766651 c 0,0 -0.00349,-2.646e-4 -0.010159,-2.646e-4 z M 1.6239394,2.6368046 C 1.0863244,2.8152334 1.9232213,3.0177302 2.6745983,2.7979464 2.5947669,2.7698041 2.5440752,2.7183028 2.5440752,2.7183028 2.1767034,2.7890039 1.9645022,2.7867471 1.6957199,2.758999 1.4879185,2.7375159 1.6239394,2.6368046 1.6239394,2.6368046 Z m 0.075987,0.3475527 C 1.2117679,3.1207566 1.9969306,3.4024975 2.6184856,3.1361995 2.5166869,3.0966357 2.4436708,3.0509629 2.4436708,3.0509629 2.1664963,3.1033584 2.0379204,3.1074857 1.786322,3.078756 1.5786793,3.0549447 1.6999266,2.9843573 1.6999264,2.9843573 Z M 1.3608718,3.2147875 C 1.1416541,3.2215575 0.71293644,3.4186575 1.1050005,3.482284 2.3721812,3.6876831 3.4148872,3.389769 3.086238,3.2414721 c 0,0 0.089774,0.074019 -0.098854,0.1312454 -0.3586781,0.1086431 -1.4931476,0.1414101 -1.8082482,0.00434 -0.1131912,-0.049303 0.099166,-0.1176412 0.1659861,-0.1320708 0.069667,-0.015081 0.1094554,-0.012329 0.1094554,-0.012329 -0.019684,-0.013863 -0.05311,-0.019128 -0.093705,-0.017885 z m 1.9265348,0.1883794 c 0,0 -0.039942,0.1025553 -0.4724855,0.1839266 -0.4879735,0.091869 -1.0899688,0.081157 -1.4468768,0.022224 0,0 0.073103,0.060523 0.4488144,0.084705 0.5716624,0.036547 1.4497659,-0.020319 1.4705479,-0.2908609 z"
     style="clip-rule:evenodd;display:inline;fill:#ffffff;fill-opacity:1;fill-rule:evenodd;stroke-width:1.01482868;enable-background:new"
     inkscape:connector-curvature="0" />
</svg>
